.icons/Papirus/22x22/panel/protonvpngui-no-network.svg

<svg xmlns="http://www.w3.org/2000/svg" width="22" height="22" version="1.1">
 <defs>
  <style id="current-color-scheme" type="text/css">
   .ColorScheme-Text { color:#dfdfdf; } .ColorScheme-Highlight { color:#4285f4; } .ColorScheme-NeutralText { color:#ff9800; } .ColorScheme-PositiveText { color:#4caf50; } .ColorScheme-NegativeText { color:#f44336; }
  </style>
 </defs>
 <path style="fill:currentColor" class="ColorScheme-NeutralText" d="m 14.447049,4.0004978 c -0.05054,8.187e-4 -0.101569,0.00282 -0.152344,0.00586 -0.232115,0.013937 -0.467811,0.052707 -0.701172,0.1152344 -1.866896,0.5002535 -2.974775,2.4182602 -2.474609,4.2851566 0.500201,1.8668082 2.41826,2.9748622 4.285156,2.4746092 1.866896,-0.500254 2.974775,-2.4182602 2.474609,-4.2851565 -0.423997,-1.5824076 -1.864736,-2.6210842 -3.43164,-2.5957037 z m 0.05273,1 a 0.5,0.5 0 0 1 0.5,0.5 v 2.5 a 0.5,0.5 0 0 1 -0.5,0.5 0.5,0.5 0 0 1 -0.5,-0.5 v -2.5 a 0.5,0.5 0 0 1 0.5,-0.5 z m 0,4 a 0.5,0.5 0 0 1 0.5,0.5 0.5,0.5 0 0 1 -0.5,0.5000002 0.5,0.5 0 0 1 -0.5,-0.5000002 0.5,0.5 0 0 1 0.5,-0.5 z"/>
 <path style="opacity:0.35;fill:currentColor" class="ColorScheme-Text" d="M 4.7322049,4.0004978 C 4.6904289,3.9995152 4.6499769,4.0007335 4.609158,4.0024478 3.3845768,4.0544158 2.5722367,5.3213419 3.2400174,6.3715885 l 0.064453,0.064453 6.7187505,0.7382812 c 0.06588,-0.9141319 0.409321,-1.7863531 0.984375,-2.5 L 4.859158,4.0083103 C 4.816663,4.0044203 4.773981,4.0014778 4.7322049,4.0004978 Z M 3.8884549,7.5063572 8.5486111,15.63917 C 9.1327387,15.54478 9.2418006,15.393878 9.6032986,14.891123 L 12.011502,11.244638 C 10.95806,10.544795 10.247748,9.433957 10.054471,8.1840916 Z M 16.107205,11.691904 c -0.512437,0.200263 -1.057255,0.304858 -1.607422,0.308594 -0.543888,-0.004 -1.082546,-0.106572 -1.589844,-0.302735 l -2.482422,3.761719 -0.5820309,0.808594 c -0.259018,0.311185 -0.7783926,0.310925 -0.9726562,-0.0625 l 0.5839843,0.996094 c 0.1295088,0.18671 0.2591631,0.311073 0.3886719,0.435547 0.7122999,0.560131 1.8781469,0.498269 2.4609379,-0.373047 z"/>
</svg>

<svg xmlns="http://www.w3.org/2000/svg" width="22" height="22" version="1.1">
 <defs>
  <style id="current-color-scheme" type="text/css">
   .ColorScheme-Text { color:#dfdfdf; } .ColorScheme-Highlight { color:#4285f4; } .ColorScheme-NeutralText { color:#ff9800; } .ColorScheme-PositiveText { color:#4caf50; } .ColorScheme-NegativeText { color:#f44336; }
  </style>
 </defs>
 <path style="fill:currentColor;opacity:0.35" class="ColorScheme-Text" d="M 10.119141,5.9414062 6.6582031,6.8847656 C 6.2871013,6.3323233 5.6655138,6.0006635 5,6 3.8954305,6 3,6.8954305 3,8 3,9.1045695 3.8954305,10 5,10 5.2235436,9.9991803 5.4453681,9.9608892 5.65625,9.8867188 l 4.675781,6.0117192 C 10.11585,16.225179 10.000395,16.608217 10,17 c 0,1.104569 0.895431,2 2,2 1.104569,0 2,-0.895431 2,-2 -0.0014,-0.625737 -0.295526,-1.214767 -0.794922,-1.591797 l 1.152344,-3.455078 C 13.929071,11.896216 13.512161,11.78483 13.117188,11.623047 L 11.992188,15 c -0.220919,0.0017 -0.440032,0.03997 -0.648438,0.113281 L 6.6679688,9.1015625 C 6.8610236,8.808387 6.9735155,8.4695641 6.9941406,8.1191406 L 10.009766,7.296875 c -0.02702,-0.4607456 0.0128,-0.9162099 0.109375,-1.3554688 z"/>
 <path style="fill:currentColor" class="ColorScheme-NeutralText" d="M 14.447266 4 C 14.396726 4.0008187 14.345697 4.0028194 14.294922 4.0058594 C 14.062807 4.0197964 13.827111 4.058566 13.59375 4.1210938 C 11.726854 4.6213473 10.618975 6.539354 11.119141 8.40625 C 11.619342 10.273058 13.537401 11.381112 15.404297 10.880859 C 17.271193 10.380605 18.379072 8.4625991 17.878906 6.5957031 C 17.454909 5.0132961 16.01417 3.9746195 14.447266 4 z M 14.5 5 A 0.5 0.5 0 0 1 15 5.5 L 15 8 A 0.5 0.5 0 0 1 14.5 8.5 A 0.5 0.5 0 0 1 14 8 L 14 5.5 A 0.5 0.5 0 0 1 14.5 5 z M 14.5 9 A 0.5 0.5 0 0 1 15 9.5 A 0.5 0.5 0 0 1 14.5 10 A 0.5 0.5 0 0 1 14 9.5 A 0.5 0.5 0 0 1 14.5 9 z"/>
</svg>
